svg/fluentui-system-icons/ic_fluent_tray_item_remove_24_filled.svg

<svg width="24" height="24" viewBox="0 0 24 24" fill="none" xmlns="http://www.w3.org/2000/svg">
<path d="M13.75 2C13.0596 2 12.5 2.55964 12.5 3.25V5.75C12.5 6.44036 13.0596 7 13.75 7H17.75C18.4404 7 19 6.44036 19 5.75V3.25C19 2.55964 18.4404 2 17.75 2H13.75ZM16.2803 8.71967C15.9874 8.42678 15.5126 8.42678 15.2197 8.71967L12.7197 11.2197C12.4268 11.5126 12.4268 11.9874 12.7197 12.2803C13.0126 12.5732 13.4874 12.5732 13.7803 12.2803L15 11.0607V17.75C15 18.1642 15.3358 18.5 15.75 18.5C16.1642 18.5 16.5 18.1642 16.5 17.75V11.0607L17.7197 12.2803C18.0126 12.5732 18.4874 12.5732 18.7803 12.2803C19.0732 11.9874 19.0732 11.5126 18.7803 11.2197L16.2803 8.71967ZM6.25 13.5C5.55964 13.5 5 14.0596 5 14.75V17.25C5 17.9404 5.55964 18.5 6.25 18.5H10.25C10.9404 18.5 11.5 17.9404 11.5 17.25V14.75C11.5 14.0596 10.9404 13.5 10.25 13.5H6.25ZM3.5 16.75C3.5 16.3358 3.16421 16 2.75 16C2.33579 16 2 16.3358 2 16.75V18.75C2 20.2688 3.23122 21.5 4.75 21.5H19.25C20.7688 21.5 22 20.2688 22 18.75V16.75C22 16.3358 21.6642 16 21.25 16C20.8358 16 20.5 16.3358 20.5 16.75V18.75C20.5 19.4404 19.9404 20 19.25 20H4.75C4.05964 20 3.5 19.4404 3.5 18.75V16.75Z" fill="#212121"/>
</svg>

<svg xmlns="http://www.w3.org/2000/svg" width="24" height="24"><path d="M13.75 2c-.69 0-1.25.56-1.25 1.25v2.5c0 .69.56 1.25 1.25 1.25h4C18.44 7 19 6.44 19 5.75v-2.5C19 2.56 18.44 2 17.75 2h-4Zm2.53 6.72a.75.75 0 0 0-1.06 0l-2.5 2.5a.75.75 0 1 0 1.06 1.06L15 11.06v6.69a.75.75 0 0 0 1.5 0v-6.69l1.22 1.22a.75.75 0 1 0 1.06-1.06l-2.5-2.5ZM6.25 13.5c-.69 0-1.25.56-1.25 1.25v2.5c0 .69.56 1.25 1.25 1.25h4c.69 0 1.25-.56 1.25-1.25v-2.5c0-.69-.56-1.25-1.25-1.25h-4ZM3.5 16.75a.75.75 0 0 0-1.5 0v2a2.75 2.75 0 0 0 2.75 2.75h14.5A2.75 2.75 0 0 0 22 18.75v-2a.75.75 0 0 0-1.5 0v2c0 .69-.56 1.25-1.25 1.25H4.75c-.69 0-1.25-.56-1.25-1.25v-2Z"/></svg>
